app/dist/common/images/regions-financial.svg

<svg height="18" width="18" xmlns="http://www.w3.org/2000/svg"><path d="m0 0h18v18h-18z" fill="#6ec72e"/><path d="m7.662 5.782-1.53 2.042 2.38 4.17zm4.338 2.218-.034-.045-1.847 4.045h4.881zm-3.008 4 1.195-6.419-1.187-1.581-1.206 1.607 1.186 6.393h.011zm-2.992-4-3 4h4.828l-1.793-4.048zm3.589 4 2.257-4.205-1.524-2.032-.759 6.237h.027z" fill="#fff"/></svg>

<!-- by TradingView --><svg width="18" height="18" xmlns="http://www.w3.org/2000/svg"><path fill="#6EC72E" d="M0 0h18v18H0z"/><path d="M7.662 5.782l-1.53 2.042 2.38 4.17-.85-6.212zM12 8l-.034-.045L10.119 12H15l-3-4zM8.992 12l1.195-6.419L9 4 7.794 5.607 8.98 12h.011zM6 8l-3 4h4.828L6.035 7.952 6 8zM9.589 12l2.257-4.205-1.524-2.032L9.563 12h.027z" fill="#fff"/></svg>
